public/avatar/shoe/22.svg

<svg xmlns:xlink="http://www.w3.org/1999/xlink" height="38.3" width="36.05" xmlns="http://www.w3.org/2000/svg"><use height="15.8" transform="translate(9.25 11.95)" width="22.6" xlink:href="#a"/><defs><g id="a"><path d="m4.35-1.35-2.9.85-4.2-.2-2-.6Q-2.2-2.7.95-2.35q1.8.15 3.4 1" fill="#333" fill-rule="evenodd" transform="translate(14.55 2.9)"/><path d="m-4.75-1.3 2 .6 4.2.2 2.9-.85L5 .05Q2.6 2.75 2.3 5.3l-.1 1.05Q2 5.2.6 4.1-.8 3-2.35 2.5l-2.95-.25.8-.9-1.1.75-1.45-.3-1.1-.5 1.5-1.4 1.9-1.2m.55 2.35-.3.3.3-.3.05-.05h-.05v.05m-1.3-.8 1.6.5-.25.25.25-.25-1.6-.5m2.75-.95L-3.9.75q1 .2 1.7.8l.1.05-.1-.05q-.7-.6-1.7-.8L-2.75-.7m1.8 2.8-.7-.35-.3-.1-.15-.05 1.15.5" fill="#f1db92" fill-rule="evenodd" transform="translate(14.55 2.9)"/><path d="m-8.15 1.3 1.1.5 1.45.3-1.15 1.4-.7.8.7-.8 1.15-1.4.3.15 2.95.25Q-.8 3 .6 4.1 2 5.2 2.2 6.35v.05q-.15 1.6 0 2.25l-3.4 1-2 .3q-.35-2.7-2.5-4.35l-1.75-1.3h-3.75l-.55.35 3.6-3.35m3.95-.25V1h.05l-.05.05m1.05 2.6-.5-.55q-.75-.45-1.65-.85.9.4 1.65.85l.5.55M-2.1 1.6l.15.05.3.1.7.35-1.15-.5" fill="#ffc" fill-rule="evenodd" transform="translate(14.55 2.9)"/><path d="m-5.6 2.1 1.1-.75-.8.9-.3-.15m7.8 4.25.1-1.05Q2.6 2.75 5 .05L7.45 5.2l-1.6 1.75Q4.4 8.1 2.5 8.55l-.3.1Q2.05 8 2.2 6.4v-.05M-14.05 9l.25-.95q.6-2 2.05-3.4l.55-.35h3.75l1.75 1.3q2.15 1.65 2.5 4.35-2.3 1-5.05.7-2.85.05-5.2-1.35l-.6-.3m6.3-1.2.55.15q2.45-1.05.1-2.3-2 .65-.65 2.15" fill-rule="evenodd" transform="translate(14.55 2.9)"/><path d="m2.2 8.65.3-.1q1.9-.45 3.35-1.6l1.6-1.75q.2 1.9-.05 2.3l-.1.15q-1.85 2.25-8.4 3.9-7.25 1.75-12.05 0l-.55-.3q-.35-.35-.35-2.25l.6.3q2.35 1.4 5.2 1.35 2.75.3 5.05-.7l2-.3 3.4-1m-9.95-.85q-1.35-1.5.65-2.15 2.35 1.25-.1 2.3l-.55-.15" fill="#fff" fill-rule="evenodd" transform="translate(14.55 2.9)"/><path d="M4.35-1.35q-1.6-.85-3.4-1-3.15-.35-5.7 1.05l-1.9 1.2-1.5 1.4-3.6 3.35q-1.45 1.4-2.05 3.4l-.25.95M5 .05l-.65-1.4m3.1 6.55L5 .05" fill="none" stroke="#000" stroke-linecap="round" stroke-linejoin="round" transform="translate(14.55 2.9)"/><path d="m-7.05 1.8 1.45.3-1.15 1.4-.7.8m2.95-2.95.3-.3.05-.05.25-.25-1.6-.5m.2 2q.9.4 1.65.85l.5.55M-2.1 1.6l-.1-.05q-.7-.6-1.7-.8L-2.75-.7m.65 2.3 1.15.5m-3.55-.75-.8.9" fill="none" stroke="#640" stroke-linecap="round" stroke-linejoin="round" transform="translate(14.55 2.9)"/><path d="m-5.3 2.25-.3-.15" fill="none" stroke="#333" stroke-linecap="round" stroke-linejoin="round" transform="translate(14.55 2.9)"/><path d="m2.2 8.65.3-.1q1.9-.45 3.35-1.6l1.6-1.75q.2 1.9-.05 2.3l-.1.15q-1.85 2.25-8.4 3.9-7.25 1.75-12.05 0l-.55-.3q-.35-.35-.35-2.25l.6.3q2.35 1.4 5.2 1.35 2.75.3 5.05-.7l2-.3 3.4-1" fill="none" stroke="#a97e01" stroke-linecap="round" stroke-linejoin="round" transform="translate(14.55 2.9)"/></g></defs></svg>

<?xml version="1.0" encoding="UTF-8" standalone="no"?>
<svg xmlns:xlink="http://www.w3.org/1999/xlink" height="38.3px" width="36.05px" xmlns="http://www.w3.org/2000/svg">
  <g transform="matrix(1.0, 0.0, 0.0, 1.0, 23.8, 14.85)">
    <use height="15.8" transform="matrix(1.0, 0.0, 0.0, 1.0, -14.55, -2.9)" width="22.6" xlink:href="#shape0"/>
  </g>
  <defs>
    <g id="shape0" transform="matrix(1.0, 0.0, 0.0, 1.0, 14.55, 2.9)">
      <path d="M4.35 -1.35 L1.45 -0.5 -2.75 -0.7 -4.75 -1.3 Q-2.2 -2.7 0.95 -2.35 2.75 -2.2 4.35 -1.35" fill="#333333" fill-rule="evenodd" stroke="none"/>
      <path d="M-4.75 -1.3 L-2.75 -0.7 1.45 -0.5 4.35 -1.35 5.0 0.05 Q2.6 2.75 2.3 5.3 L2.2 6.35 Q2.0 5.2 0.6 4.1 -0.8 3.0 -2.35 2.5 L-5.3 2.25 -4.5 1.35 -5.6 2.1 -7.05 1.8 -8.15 1.3 -6.65 -0.1 -4.75 -1.3 M-4.2 1.05 L-4.5 1.35 -4.2 1.05 -4.15 1.0 -4.2 1.0 -4.2 1.05 M-5.5 0.25 L-3.9 0.75 -4.15 1.0 -3.9 0.75 -5.5 0.25 M-2.75 -0.7 L-3.9 0.75 Q-2.9 0.95 -2.2 1.55 L-2.1 1.6 -2.2 1.55 Q-2.9 0.95 -3.9 0.75 L-2.75 -0.7 M-0.95 2.1 L-1.65 1.75 -1.95 1.65 -2.1 1.6 -0.95 2.1" fill="#f1db92" fill-rule="evenodd" stroke="none"/>
      <path d="M-8.15 1.3 L-7.05 1.8 -5.6 2.1 -6.75 3.5 -7.45 4.3 -6.75 3.5 -5.6 2.1 -5.3 2.25 -2.35 2.5 Q-0.8 3.0 0.6 4.1 2.0 5.2 2.2 6.35 L2.2 6.4 Q2.05 8.0 2.2 8.65 L-1.2 9.65 -3.2 9.95 Q-3.55 7.25 -5.7 5.6 L-7.45 4.3 -11.2 4.3 -11.75 4.65 -8.15 1.3 M-4.2 1.05 L-4.2 1.0 -4.15 1.0 -4.2 1.05 M-3.15 3.65 L-3.65 3.1 Q-4.4 2.65 -5.3 2.25 -4.4 2.65 -3.65 3.1 L-3.15 3.65 M-2.1 1.6 L-1.95 1.65 -1.65 1.75 -0.95 2.1 -2.1 1.6" fill="#ffffcc" fill-rule="evenodd" stroke="none"/>
      <path d="M-5.6 2.1 L-4.5 1.35 -5.3 2.25 -5.6 2.1 M2.2 6.35 L2.3 5.3 Q2.6 2.75 5.0 0.05 L7.45 5.2 5.85 6.95 Q4.4 8.1 2.5 8.55 L2.2 8.65 Q2.05 8.0 2.2 6.4 L2.2 6.35 M-14.05 9.0 L-13.8 8.05 Q-13.2 6.05 -11.75 4.65 L-11.2 4.3 -7.45 4.3 -5.7 5.6 Q-3.55 7.25 -3.2 9.95 -5.5 10.95 -8.25 10.65 -11.1 10.7 -13.45 9.3 L-14.05 9.0 M-7.75 7.8 L-7.2 7.95 Q-4.75 6.9 -7.1 5.65 -9.1 6.3 -7.75 7.8" fill="#000000" fill-rule="evenodd" stroke="none"/>
      <path d="M2.2 8.65 L2.5 8.55 Q4.4 8.1 5.85 6.95 L7.45 5.2 Q7.65 7.1 7.4 7.5 L7.3 7.65 Q5.45 9.9 -1.1 11.55 -8.35 13.3 -13.15 11.55 L-13.7 11.25 Q-14.05 10.9 -14.05 9.0 L-13.45 9.3 Q-11.1 10.7 -8.25 10.65 -5.5 10.95 -3.2 9.95 L-1.2 9.65 2.2 8.65 M-7.75 7.8 Q-9.1 6.3 -7.1 5.65 -4.75 6.9 -7.2 7.95 L-7.75 7.8" fill="#ffffff" fill-rule="evenodd" stroke="none"/>
      <path d="M4.35 -1.35 Q2.75 -2.2 0.95 -2.35 -2.2 -2.7 -4.75 -1.3 L-6.65 -0.1 -8.15 1.3 -11.75 4.65 Q-13.2 6.05 -13.8 8.05 L-14.05 9.0 M5.0 0.05 L4.35 -1.35 M7.45 5.2 L5.0 0.05" fill="none" stroke="#000000" stroke-linecap="round" stroke-linejoin="round" stroke-width="1.0"/>
      <path d="M-7.05 1.8 L-5.6 2.1 -6.75 3.5 -7.45 4.3 M-4.5 1.35 L-4.2 1.05 -4.15 1.0 -3.9 0.75 -5.5 0.25 M-5.3 2.25 Q-4.4 2.65 -3.65 3.1 L-3.15 3.65 M-2.1 1.6 L-2.2 1.55 Q-2.9 0.95 -3.9 0.75 L-2.75 -0.7 M-2.1 1.6 L-0.95 2.1 M-4.5 1.35 L-5.3 2.25" fill="none" stroke="#664400" stroke-linecap="round" stroke-linejoin="round" stroke-width="1.0"/>
      <path d="M-5.3 2.25 L-5.6 2.1" fill="none" stroke="#333333" stroke-linecap="round" stroke-linejoin="round" stroke-width="1.0"/>
      <path d="M2.2 8.65 L2.5 8.55 Q4.4 8.1 5.85 6.95 L7.45 5.2 Q7.65 7.1 7.4 7.5 L7.3 7.65 Q5.45 9.9 -1.1 11.55 -8.35 13.3 -13.15 11.55 L-13.7 11.25 Q-14.05 10.9 -14.05 9.0 L-13.45 9.3 Q-11.1 10.7 -8.25 10.65 -5.5 10.95 -3.2 9.95 L-1.2 9.65 2.2 8.65" fill="none" stroke="#a97e01" stroke-linecap="round" stroke-linejoin="round" stroke-width="1.0"/>
    </g>
  </defs>
</svg>
